X:13122
T:PILE MENU 3
Z: Yves BELOTTEAU
M:4/4
L:1/4
Q:1/4=120
K:G
|eeed edcB|e/2e/2eed ddd/2c/2B|eeed edcB|e/2e/2eed ddd/2c/2B|
eA3/2 z/2 B c/2d/2e3/2 z/2 B|cd3/2 z/2 e c/2B/2cBA3/2|eA3/2 z/2 B c/2d/2
e3/2 z/2 B|cd3/2 z/2 e c/2B/2cBA3/2|
e|
